www/images/write@2x.svg

<svg fill="none" height="55" viewBox="0 0 55 55" width="55" xmlns="http://www.w3.org/2000/svg"><path d="m12.1075 33.0784 1.6496-2.5964c.0499-.078.1146-.1453.1901-.1978 0 0 .2062-.1412.57-.3928-.0094-.078-.0067-.1574.0095-.2341.2479-1.0977 1.5687-3.1453 3.1402-5.5103.4353-.6552.8113-1.2202.996-1.5377.4919-.8341 1.1913-1.5282 2.0296-2.0139.0458-.0242.0944-.043.1442-.0551 1.2939-.3418 2.6335-.5812 4.8544-.9767l1.3141-.2354h-.0014c.8855-.1709 1.7992-.1346 2.6685.1076 1.7548-1.2108 2.961-2.0435 3.0675-2.1162.8288-.5677 1.9636-.3592 2.5364.4669.5849.8475.4164 2.0018-.3868 2.6475-.0822.0565-.8302.5731-1.9812 1.3668l9.8896 9.8718c.1294.1305.2022.3054.2022.4884 0 .1829-.0741.3578-.2035.487l-6.1955 6.1505v.0014c-.2709.2677-.7062.2664-.9744-.0014l-3.7628-3.7559c-2.3855.0511-4.3331-.7279-6.0433-1.7328-.2278.0014-.4542.0041-.6685.0041-2.3868 0-3.9529-.1359-4.9406-1.1207-.4462-.4453-.775-.7506-.992-.9457l-3.12 2.1498c-.0768.0538-.1631.0901-.2534.109l-3.0175.6161c-.2709.0552-.5499-.0565-.7062-.2838-.1577-.2274-.1631-.5274-.0149-.7601zm15.1418-12.3955-1.3153.2355c-2.1348.3807-3.4421.6148-4.6578.9295v.0014c-.5822.3646-1.0687.8637-1.4205 1.4543-.2048.3511-.5728.904-1.0377 1.6049-.6645.9996-1.6173 2.4363-2.2629 3.5773 2.9421-2.0301 7.7885-5.3733 11.4139-7.8753-.2412.0067-.4825.0323-.7197.0726zm6.8911-2.1148c-.1442-.195-.4137-.2435-.6173-.1143-.2439.1681-6.3086 4.3521-11.4825 7.9225.5148.0269 1.0283.0914 1.5337.1896l2.0782-1.4327c4.2589-2.9381 8.2576-5.6973 8.4543-5.8334.1671-.2125.1806-.5058.0337-.7318zm-7.7036 7.698-1.0296.7103c.9029.2556 1.8315.4116 2.7682.4641l-1.4057-1.4031c-.1105.0753-.2224.152-.3329.2287zm5.6673 7.3897c.1954-.0095.3841.0632.5229.2004l3.4878 3.4829 5.2184-5.1808-9.5784-9.5611c-1.1092.7655-2.4313 1.6776-3.8304 2.6422l2.0243 2.0206h-.0013c.1388.1386.2115.3283.2008.5233-.0095.1951-.1025.3767-.2548.4991-1.1361.9189-2.9798.4749-4.9299.0041-2.275-.5489-3.9353-.8583-4.7751-.0269 1.3141.4009 2.5648 1.2915 3.8722 2.2224 2.1968 1.5646 4.6874 3.339 8.043 3.1735zm-10.9181-2.4377c.4528.452 1.2817.6256 2.4973.6874-.1428-.1008-.2843-.2017-.4245-.3013-.748-.557-1.527-1.0695-2.3356-1.5336l-.5391.3726c.2116.1978.4771.4507.8019.7749zm-5.7549.9659 3.9218-2.7054c-.1024-.0188-.2048-.0417-.3059-.0511v.0013c-.31-.0255-.5634-.2583-.6132-.5636-1.8262 1.2605-3.1928 2.2036-3.5851 2.474l-.7049 1.1099z" fill="#000"/><path d="m27.2493 20.6829-1.3153.2355c-2.1348.3807-3.4421.6148-4.6578.9295v.0014c-.5822.3646-1.0687.8637-1.4205 1.4543-.2048.3511-.5728.904-1.0377 1.6049-.6645.9996-1.6173 2.4363-2.2629 3.5773 2.9421-2.0301 7.7885-5.3733 11.4139-7.8753-.2412.0067-.4825.0321-.7197.0724zm6.8911-2.1148c-.1442-.195-.4137-.2435-.6173-.1143-.2439.1681-6.3086 4.3521-11.4825 7.9225.5148.0269 1.0283.0914 1.5337.1896l2.0782-1.4327c4.2589-2.9381 8.2576-5.6973 8.4543-5.8334.1671-.2125.1805-.5057.0336-.7317zm-7.7036 7.698-1.0296.7103c.9029.2556 1.8315.4116 2.7682.4641l-1.4057-1.4031c-.1105.0753-.2224.152-.3329.2287zm5.6673 7.3897c.1954-.0095.3841.0632.5229.2004l3.4878 3.4829 5.2184-5.1808-9.5784-9.5611c-1.1092.7655-2.4313 1.6776-3.8304 2.6422l2.0243 2.0206h-.0013c.1388.1386.2115.3283.2008.5233-.0095.1951-.1025.3767-.2548.4991-1.1361.9189-2.9798.4749-4.9299.0041-2.275-.5489-3.9353-.8583-4.7751-.0269 1.3141.4009 2.5648 1.2915 3.8722 2.2224 2.1968 1.5646 4.6879 3.3392 8.0435 3.1738zm-10.9181-2.4377c.4528.452 1.2817.6256 2.4973.6874-.1428-.1008-.2843-.2017-.4245-.3013-.748-.557-1.527-1.0695-2.3356-1.5336l-.5391.3726c.2116.1978.4771.4507.8019.7749zm-5.7549.9659 3.9218-2.7054c-.1024-.0188-.2048-.0417-.3059-.0511v.0013c-.31-.0255-.5634-.2582-.6132-.5636-1.8262 1.2605-3.1928 2.2036-3.5851 2.474l-.7049 1.1099z" fill="#fff"/></svg>

<svg width="55" height="55" viewBox="0 0 55 55" fill="none" xmlns="http://www.w3.org/2000/svg">
<path d="M12.1075 33.0784L13.7571 30.482C13.807 30.404 13.8717 30.3367 13.9472 30.2842C13.9472 30.2842 14.1534 30.143 14.5172 29.8914C14.5078 29.8134 14.5105 29.734 14.5267 29.6573C14.7746 28.5596 16.0954 26.512 17.6669 24.147C18.1022 23.4918 18.4782 22.9268 18.6629 22.6093C19.1548 21.7752 19.8542 21.0811 20.6925 20.5954C20.7383 20.5712 20.7869 20.5524 20.8367 20.5403C22.1306 20.1985 23.4702 19.9591 25.6911 19.5636L27.0052 19.3282H27.0038C27.8893 19.1573 28.803 19.1936 29.6723 19.4358C31.4271 18.225 32.6333 17.3923 32.7398 17.3196C33.5686 16.7519 34.7034 16.9604 35.2762 17.7865C35.8611 18.634 35.6926 19.7883 34.8894 20.434C34.8072 20.4905 34.0592 21.0071 32.9082 21.8008L42.7978 31.6726C42.9272 31.8031 43 31.978 43 32.161C43 32.3439 42.9259 32.5188 42.7965 32.648L36.601 38.7985V38.7999C36.3301 39.0676 35.8948 39.0663 35.6266 38.7985L31.8638 35.0426C29.4783 35.0937 27.5307 34.3147 25.8205 33.3098C25.5927 33.3112 25.3663 33.3139 25.152 33.3139C22.7652 33.3139 21.1991 33.178 20.2114 32.1932C19.7652 31.7479 19.4364 31.4426 19.2194 31.2475L16.0994 33.3973C16.0226 33.4511 15.9363 33.4874 15.846 33.5063L12.8285 34.1224C12.5576 34.1776 12.2786 34.0659 12.1223 33.8386C11.9646 33.6112 11.9592 33.3112 12.1074 33.0785L12.1075 33.0784ZM27.2493 20.6829L25.934 20.9184C23.7992 21.2991 22.4919 21.5332 21.2762 21.8479V21.8493C20.694 22.2139 20.2075 22.713 19.8557 23.3036C19.6509 23.6547 19.2829 24.2076 18.818 24.9085C18.1535 25.9081 17.2007 27.3448 16.5551 28.4858C19.4972 26.4557 24.3436 23.1125 27.969 20.6105C27.7278 20.6172 27.4865 20.6428 27.2493 20.6831V20.6829ZM34.1404 18.5681C33.9962 18.3731 33.7267 18.3246 33.5231 18.4538C33.2792 18.6219 27.2145 22.8059 22.0406 26.3763C22.5554 26.4032 23.0689 26.4677 23.5743 26.5659L25.6525 25.1332C29.9114 22.1951 33.9101 19.4359 34.1068 19.2998C34.2739 19.0873 34.2874 18.794 34.1405 18.568L34.1404 18.5681ZM26.4368 26.2661L25.4072 26.9764C26.3101 27.232 27.2387 27.388 28.1754 27.4405L26.7697 26.0374C26.6592 26.1127 26.5473 26.1894 26.4368 26.2661L26.4368 26.2661ZM32.1041 33.6558C32.2995 33.6463 32.4882 33.719 32.627 33.8562L36.1148 37.3391L41.3332 32.1583L31.7548 22.5972C30.6456 23.3627 29.3235 24.2748 27.9244 25.2394L29.9487 27.26H29.9474C30.0862 27.3986 30.1589 27.5883 30.1482 27.7833C30.1387 27.9784 30.0457 28.16 29.8934 28.2824C28.7573 29.2013 26.9136 28.7573 24.9635 28.2865C22.6885 27.7376 21.0282 27.4282 20.1884 28.2596C21.5025 28.6605 22.7532 29.5511 24.0606 30.482C26.2574 32.0466 28.748 33.821 32.1036 33.6555L32.1041 33.6558ZM21.186 31.2181C21.6388 31.6701 22.4677 31.8437 23.6833 31.9055C23.5405 31.8047 23.399 31.7038 23.2588 31.6042C22.5108 31.0472 21.7318 30.5347 20.9232 30.0706L20.3841 30.4432C20.5957 30.641 20.8612 30.8939 21.186 31.2181ZM15.4311 32.184L19.3529 29.4786C19.2505 29.4598 19.1481 29.4369 19.047 29.4275V29.4288C18.737 29.4033 18.4836 29.1705 18.4338 28.8652C16.6076 30.1257 15.241 31.0688 14.8487 31.3392L14.1438 32.4491L15.4311 32.184Z" fill="black"/>
<path d="M27.2493 20.6829L25.934 20.9184C23.7992 21.2991 22.4919 21.5332 21.2762 21.8479V21.8493C20.694 22.2139 20.2075 22.713 19.8557 23.3036C19.6509 23.6547 19.2829 24.2076 18.818 24.9085C18.1535 25.9081 17.2007 27.3448 16.5551 28.4858C19.4972 26.4557 24.3436 23.1125 27.969 20.6105C27.7278 20.6172 27.4865 20.6426 27.2493 20.6829ZM34.1404 18.5681C33.9962 18.3731 33.7267 18.3246 33.5231 18.4538C33.2792 18.6219 27.2145 22.8059 22.0406 26.3763C22.5554 26.4032 23.0689 26.4677 23.5743 26.5659L25.6525 25.1332C29.9114 22.1951 33.9101 19.4359 34.1068 19.2998C34.2739 19.0873 34.2873 18.7941 34.1404 18.5681ZM26.4368 26.2661L25.4072 26.9764C26.3101 27.232 27.2387 27.388 28.1754 27.4405L26.7697 26.0374C26.6592 26.1127 26.5473 26.1894 26.4368 26.2661ZM32.1041 33.6558C32.2995 33.6463 32.4882 33.719 32.627 33.8562L36.1148 37.3391L41.3332 32.1583L31.7548 22.5972C30.6456 23.3627 29.3235 24.2748 27.9244 25.2394L29.9487 27.26H29.9474C30.0862 27.3986 30.1589 27.5883 30.1482 27.7833C30.1387 27.9784 30.0457 28.16 29.8934 28.2824C28.7573 29.2013 26.9136 28.7573 24.9635 28.2865C22.6885 27.7376 21.0282 27.4282 20.1884 28.2596C21.5025 28.6605 22.7532 29.5511 24.0606 30.482C26.2574 32.0466 28.7485 33.8212 32.1041 33.6558ZM21.186 31.2181C21.6388 31.6701 22.4677 31.8437 23.6833 31.9055C23.5405 31.8047 23.399 31.7038 23.2588 31.6042C22.5108 31.0472 21.7318 30.5347 20.9232 30.0706L20.3841 30.4432C20.5957 30.641 20.8612 30.8939 21.186 31.2181ZM15.4311 32.184L19.3529 29.4786C19.2505 29.4598 19.1481 29.4369 19.047 29.4275V29.4288C18.737 29.4033 18.4836 29.1706 18.4338 28.8652C16.6076 30.1257 15.241 31.0688 14.8487 31.3392L14.1438 32.4491L15.4311 32.184Z" fill="white"/>
</svg>
